public/images/remove-1.svg

<svg fill="#4d4d4d" viewBox="0 0 512 512" xmlns="http://www.w3.org/2000/svg"><path fill="#d4d4d4" d="m256 512c-141.164062 0-256-114.835938-256-256s114.835938-256 256-256 256 114.835938 256 256-114.835938 256-256 256zm0-480c-123.519531 0-224 100.480469-224 224s100.480469 224 224 224 224-100.480469 224-224-100.480469-224-224-224zm0 0"/><path d="m176.8125 351.1875c-4.097656 0-8.195312-1.554688-11.308594-4.691406-6.25-6.25-6.25-16.382813 0-22.632813l158.398438-158.402343c6.253906-6.25 16.386718-6.25 22.636718 0s6.25 16.382812 0 22.636718l-158.402343 158.398438c-3.15625 3.136718-7.25 4.691406-11.324219 4.691406zm0 0"/><path d="m335.1875 351.1875c-4.09375 0-8.191406-1.554688-11.304688-4.691406l-158.398437-158.378906c-6.253906-6.25-6.253906-16.382813 0-22.632813 6.25-6.253906 16.382813-6.253906 22.632813 0l158.398437 158.398437c6.253906 6.25 6.253906 16.382813 0 22.632813-3.132813 3.117187-7.230469 4.671875-11.328125 4.671875zm0 0"/></svg>

<?xml version="1.0" encoding="utf-8"?>
<!-- Generator: Adobe Illustrator 26.3.1, SVG Export Plug-In . SVG Version: 6.00 Build 0)  -->
<svg version="1.1" id="Layer_1" xmlns="http://www.w3.org/2000/svg" xmlns:xlink="http://www.w3.org/1999/xlink" x="0px" y="0px"
	 viewBox="0 0 512 512" style="enable-background:new 0 0 512 512;" xml:space="preserve">
<style type="text/css">
	.st0{fill:#D4D4D4;}
	.st1{fill:#644A1D;}
</style>
<path class="st0" d="M256,512C114.8,512,0,397.2,0,256S114.8,0,256,0s256,114.8,256,256S397.2,512,256,512z M256,32
	C132.5,32,32,132.5,32,256s100.5,224,224,224s224-100.5,224-224S379.5,32,256,32z"/>
<path class="st1" d="M176.8,351.2c-4.1,0-8.2-1.6-11.3-4.7c-6.2-6.2-6.2-16.4,0-22.6l158.4-158.4c6.3-6.2,16.4-6.2,22.6,0
	s6.2,16.4,0,22.6L188.1,346.5C185,349.6,180.9,351.2,176.8,351.2z"/>
<path class="st1" d="M335.2,351.2c-4.1,0-8.2-1.6-11.3-4.7L165.5,188.1c-6.3-6.2-6.3-16.4,0-22.6c6.2-6.3,16.4-6.3,22.6,0
	l158.4,158.4c6.3,6.2,6.3,16.4,0,22.6C343.4,349.6,339.3,351.2,335.2,351.2z"/>
</svg>
